X: 977
T: Tombigbee Waltz
B: jims roots
M:3/4
L:1/8
Q: 1/4=100
K:G
V:1 
BA | "G"G2 B2 B2 |"(Gm7)"d4 BA |"(G6)"G2 B2 B2 | "G"d4 B2 | "Am"B2 A2 A2 |"(Am6)"A2 B2 d2 |
"C"e4 d2 |"D7"B3 c BA | "G"G2 B2 B2 |"(Gm7)"d4 BA |"(G6)"G2 B2 B2 | "G"d4 "G#dim"B2 |
"Am"B2 A2 A2 | A2 B2 d2 |"C"e2 d2 "D"F2 | "G"G4 || d2 | "G"g4 d2 |"G/B"g4 d2 | "C"e3 d c2 |
"G"d4 B2 | "Am"B2 A2 A2 | A2 B2 d2 |"C"e4 d2 |"D"B4 d2 | "G"g4 d2 |
"G/B"g4 d2 |"C"e3 d c2 |"G"d4 B2 | "Am"B2 A2 A2 | A2 B2 d2 | "C"e2 d2 "D"F2 |"G"G4 |]
% abcbook-tune_id 6298c2975a317703af459230


% abcbook-boost 0
% abcbook-tablature 
% abcbook-transpose 
% abcbook-lastupdated 1654178456213
% abcbook-soundfonts 
% abcbook-repeats 1


